public/samoralang-logo.svg

<svg width="204" height="50" viewBox="0 0 204 50" fill="none" xmlns="http://www.w3.org/2000/svg">
<g clip-path="url(#clip0_2_3)">
<path d="M31.225 38.825L28.2 35.825L26.45 34.075L10.025 17.675L13.325 14.375L15.125 16.125L31.75 32.4L30 34.1L33.025 37.1L37.875 32.425L18.125 13.1L16.9893 11.9643L16.8393 11.8143L16.35 11.325L16.5 11.225C17.05 10.65 17.725 10.2 18.45 9.875C19.375 9.425 20.4 9.225 21.45 9.225C23.35 9.225 25.15 9.975 26.425 11.225L36.325 21.125L39.35 18.125L29.45 8.175C27.4 6.125 24.5 5 21.45 5C19.225 5 17.05 5.625 15.25 6.75C14.6 7.2 14 7.675 13.475 8.175L13.3036 8.34643L5 0.2L4.75 0L1.775 3.025L10.3 11.375L10.275 11.4L4 17.675L23.35 37.025L25.125 38.775C24.475 39.4 23.75 39.875 22.975 40.175C22.125 40.55 21.2 40.75 20.275 40.75C18.45 40.75 16.625 40.025 15.275 38.65L3.05 26.275L0 29.25L12.25 41.625C14.35 43.8 17.225 45 20.275 45C22.375 45 24.4 44.4 26.125 43.325C26.85 42.95 27.5 42.425 28.1 41.875L28.15 41.8L29.925 43.6L36.325 50L39.35 46.95L33 40.625L31.225 38.825Z" fill="#ED1C24"/>
<path d="M61.0607 22.6607L57.3786 21.5786C56.6214 21.3786 56.075 21.1107 55.7393 20.7678C55.4036 20.425 55.2393 19.8464 55.2393 19.0357C55.2393 18.5107 55.2964 18.1 55.4143 17.8036C55.5321 17.5071 55.7179 17.2857 55.9679 17.1393C56.2214 16.9964 56.55 16.9036 56.9571 16.8678C57.3643 16.8321 57.8536 16.8143 58.4321 16.8143C59.3714 16.8143 60.35 16.8286 61.3714 16.8536C62.3929 16.8821 63.2893 16.9036 64.0643 16.9214L64.2821 14.6178C63.3071 14.3643 62.3107 14.1928 61.2893 14.1036C60.2679 14.0143 59.3 13.9607 58.3786 13.9393C57.2214 13.9393 56.2357 14.0071 55.4143 14.1428C54.5929 14.2786 53.9214 14.5214 53.3964 14.875C52.8714 15.2286 52.4857 15.7428 52.2321 16.4178C51.9786 17.0964 51.8536 17.9678 51.8536 19.0321C51.8536 20.4571 52.1393 21.5964 52.7071 22.4428C53.275 23.2928 54.2643 23.9321 55.6714 24.3643L59.4893 25.5286C59.975 25.6536 60.375 25.8107 60.6821 25.9893C60.9893 26.1714 61.2107 26.4178 61.3464 26.7357C61.4821 27.05 61.55 27.4893 61.55 28.05C61.55 28.7 61.4536 29.1964 61.2643 29.5393C61.075 29.8821 60.7464 30.1071 60.275 30.2178C59.8036 30.325 59.1536 30.3821 58.325 30.3821H56.8607C56.3357 30.3821 55.7143 30.3678 54.9929 30.3428C54.2714 30.3143 53.375 30.2857 52.3107 30.2464L52.0929 32.6857C53.4643 32.975 54.6893 33.1536 55.7643 33.2286C56.8393 33.3 57.6821 33.3357 58.2964 33.3357C59.4893 33.3357 60.5071 33.2536 61.3571 33.0928C62.2071 32.9286 62.8929 32.6607 63.4143 32.2786C63.9393 31.9 64.325 31.3678 64.5786 30.6821C64.8322 29.9964 64.9571 29.1214 64.9571 28.0536C64.9571 26.6286 64.675 25.4857 64.1179 24.6286C63.5571 23.7714 62.5393 23.1178 61.0571 22.6643L61.0607 22.6607ZM116.054 20.0321C115.086 19.5821 113.793 19.3571 112.168 19.3571C110.543 19.3571 109.3 19.5821 108.336 20.0321C107.368 20.4857 106.671 21.225 106.236 22.2536C105.804 23.2821 105.586 24.6464 105.586 26.3428C105.586 28.0393 105.804 29.4 106.236 30.4178C106.668 31.4393 107.368 32.1786 108.336 32.6393C109.3 33.1 110.579 33.3286 112.168 33.3286C113.757 33.3286 115.089 33.1 116.054 32.6393C117.018 32.1786 117.714 31.4393 118.139 30.4178C118.564 29.3964 118.775 28.0393 118.775 26.3428C118.775 24.6464 118.564 23.2821 118.139 22.2536C117.714 21.225 117.021 20.4857 116.054 20.0321ZM115.079 29.0786C114.889 29.7286 114.561 30.1786 114.089 30.4321C113.618 30.6857 112.979 30.8107 112.168 30.8107C111.357 30.8107 110.746 30.6857 110.286 30.4321C109.825 30.1786 109.496 29.7286 109.296 29.0786C109.096 28.4286 109 27.5178 109 26.3428C109 25.1678 109.1 24.2571 109.296 23.6071C109.496 22.9571 109.825 22.5 110.286 22.2393C110.746 21.9786 111.371 21.8464 112.168 21.8464C112.964 21.8464 113.621 21.9786 114.089 22.2393C114.557 22.5 114.889 22.9571 115.079 23.6071C115.268 24.2571 115.364 25.1678 115.364 26.3428C115.364 27.5178 115.268 28.4286 115.079 29.0786ZM77.0929 19.775C76.3536 19.4964 75.45 19.3571 74.3857 19.3571C73.7357 19.3571 73.0036 19.3857 72.1929 19.4393C71.3786 19.4928 70.575 19.5643 69.7821 19.6571C68.9857 19.7464 68.275 19.8571 67.6429 19.9821L67.9393 22.2286C68.9857 22.1393 70.0286 22.0643 71.0679 22.0107C72.1071 21.9571 72.9679 21.9286 73.6536 21.9286C74.575 21.9286 75.1964 22.0857 75.5214 22.4036C75.8464 22.7214 76.0107 23.2286 76.0107 23.9321V24.8H70.8929C69.6821 24.8 68.7286 25.0928 68.0357 25.6786C67.3393 26.2643 66.9929 27.0821 66.9929 28.1286V29.5357C66.9929 30.35 67.1714 31.0286 67.5357 31.5821C67.8964 32.1321 68.3929 32.55 69.025 32.8286C69.6571 33.1071 70.3714 33.25 71.1643 33.25C71.9571 33.25 72.65 33.1321 73.2893 32.8964C73.9286 32.6607 74.5 32.3643 74.9964 32.0036C75.4929 31.6428 75.9143 31.2786 76.2571 30.9071C76.2964 30.8643 76.3286 30.8286 76.3643 30.7857L76.7143 32.9786H79.3143V23.9607C79.3143 22.7857 79.1286 21.8678 78.7607 21.2C78.3893 20.5321 77.8357 20.0571 77.0964 19.7786L77.0929 19.775ZM76.0107 29.1928C75.8321 29.3321 75.6464 29.4678 75.4571 29.5928C74.8714 29.9714 74.2786 30.2571 73.6821 30.4464C73.0857 30.6357 72.5429 30.7321 72.0571 30.7321C71.4429 30.7321 70.9929 30.5964 70.7036 30.325C70.4143 30.0536 70.2714 29.6464 70.2714 29.1071V28.375C70.2714 27.9071 70.3893 27.5357 70.625 27.2643C70.8607 26.9928 71.2464 26.85 71.7893 26.8321H76.0143V29.1964L76.0107 29.1928ZM99.1929 19.3536C98.2357 19.3536 97.3286 19.5607 96.4714 19.975C95.7107 20.3428 94.9286 20.8821 94.1179 21.5893C93.9607 21.0571 93.7143 20.6178 93.3714 20.275C92.7571 19.6607 91.8714 19.3536 90.7179 19.3536C89.7607 19.3536 88.85 19.5607 87.9822 19.975C87.1714 20.3643 86.3429 20.9428 85.5 21.7107L85.2464 19.675H82.6179V32.9714H85.8964V23.5928C86.3786 23.275 86.7964 23.0143 87.1429 22.8143C87.575 22.5607 87.9714 22.3821 88.3357 22.2714C88.6964 22.1643 89.0571 22.1071 89.4179 22.1071C89.9964 22.1071 90.4286 22.2464 90.7179 22.5286C91.0071 22.8071 91.15 23.3 91.15 24.0036V32.9678H94.3179V23.625C94.7929 23.3107 95.2107 23.0464 95.5643 22.8393C95.9964 22.5857 96.3893 22.4036 96.7429 22.2857C97.0964 22.1678 97.4607 22.1107 97.8393 22.1107C98.4714 22.1107 98.9143 22.2607 99.1679 22.5571C99.4214 22.8536 99.5571 23.3393 99.575 24.0071V32.9714H102.825V23.0036C102.825 21.8107 102.514 20.9036 101.889 20.2821C101.264 19.6607 100.368 19.3464 99.1929 19.3464V19.3536ZM141.929 19.7714C141.189 19.4928 140.286 19.3536 139.221 19.3536C138.571 19.3536 137.839 19.3821 137.029 19.4357C136.214 19.4893 135.411 19.5607 134.618 19.6536C133.821 19.7428 133.111 19.8536 132.479 19.9786L132.775 22.225C133.821 22.1357 134.864 22.0607 135.904 22.0071C136.943 21.9536 137.804 21.925 138.489 21.925C139.411 21.925 140.032 22.0821 140.357 22.4C140.682 22.7178 140.846 23.225 140.846 23.9286V24.7964H135.729C134.518 24.7964 133.564 25.0893 132.871 25.675C132.175 26.2607 131.829 27.0786 131.829 28.125V29.5321C131.829 30.3464 132.007 31.025 132.371 31.5786C132.732 32.1286 133.229 32.5464 133.861 32.825C134.493 33.1036 135.207 33.2464 136 33.2464C136.793 33.2464 137.486 33.1286 138.125 32.8928C138.764 32.6571 139.336 32.3607 139.832 32C140.329 31.6393 140.75 31.275 141.093 30.9036C141.132 30.8607 141.164 30.825 141.2 30.7821L141.55 32.975H144.15V23.9571C144.15 22.7821 143.964 21.8643 143.596 21.1964C143.225 20.5286 142.671 20.0536 141.932 19.775L141.929 19.7714ZM140.846 29.1893C140.668 29.3286 140.482 29.4643 140.293 29.5893C139.707 29.9678 139.114 30.2536 138.518 30.4428C137.921 30.6321 137.379 30.7286 136.893 30.7286C136.279 30.7286 135.829 30.5928 135.539 30.3214C135.25 30.05 135.107 29.6428 135.107 29.1036V28.3714C135.107 27.9036 135.225 27.5321 135.461 27.2607C135.696 26.9893 136.082 26.8464 136.625 26.8286H140.85V29.1928L140.846 29.1893ZM127.171 20.0143C126.257 20.4286 125.361 21.0036 124.479 21.7286L124.136 19.6786H121.589V32.975H124.868V23.6428C125.793 23.25 126.582 22.9428 127.225 22.7357C127.946 22.5 128.661 22.3821 129.364 22.3821H130.311L130.636 19.35H129.986C129.082 19.35 128.143 19.5714 127.168 20.0143H127.171ZM183.586 19.5143C182.593 19.5143 181.586 19.7393 180.564 20.1893C179.575 20.6286 178.561 21.25 177.529 22.0428L177.407 19.8357H175.971V32.9714H177.679V23.2821C178.782 22.575 179.739 22.0214 180.55 21.625C181.4 21.2107 182.264 21.0036 183.15 21.0036C183.943 21.0036 184.521 21.1964 184.882 21.5857C185.243 21.975 185.425 22.6393 185.425 23.575V32.9714H187.132V23.1143C187.132 20.7143 185.95 19.5143 183.586 19.5143ZM203.382 19.8393H199.214C198.468 19.625 197.518 19.5143 196.364 19.5143C195.011 19.5143 193.932 19.6643 193.129 19.9607C192.325 20.2571 191.746 20.7143 191.396 21.3286C191.043 21.9428 190.868 22.7286 190.868 23.6857C190.868 24.6428 191.043 25.3964 191.396 26C191.643 26.425 192.004 26.7714 192.475 27.0464C192.229 27.2286 192.021 27.4571 191.857 27.7321C191.65 28.0857 191.518 28.4536 191.464 28.8428C191.411 29.2321 191.45 29.6143 191.586 29.9928C191.721 30.3714 191.957 30.6964 192.289 30.9678C192.368 31.0321 192.454 31.0893 192.546 31.1464C192 31.4321 191.561 31.7286 191.232 32.0393C190.896 32.3536 190.664 32.7178 190.529 33.1214C190.393 33.525 190.325 34.0286 190.325 34.625C190.325 35.3643 190.429 35.9821 190.636 36.4786C190.843 36.975 191.189 37.375 191.679 37.6857C192.168 37.9928 192.804 38.2143 193.589 38.35C194.375 38.4857 195.346 38.5536 196.5 38.5536C198 38.5536 199.193 38.4286 200.089 38.175C200.982 37.9214 201.625 37.5071 202.011 36.9286C202.4 36.35 202.593 35.5643 202.593 34.5714C202.593 33.5071 202.368 32.6857 201.914 32.1071C201.464 31.5286 200.643 31.15 199.45 30.9714L194.411 30.1321C193.743 30.025 193.304 29.7893 193.096 29.4286C192.889 29.0678 192.846 28.6678 192.975 28.225C193.054 27.9428 193.193 27.6821 193.375 27.4428C194.146 27.6857 195.139 27.8071 196.361 27.8071C197.696 27.8071 198.768 27.6571 199.571 27.3607C200.375 27.0643 200.954 26.6071 201.304 25.9928C201.657 25.3786 201.832 24.6036 201.832 23.6643C201.832 22.725 201.657 21.925 201.304 21.3214C201.236 21.2036 201.157 21.0964 201.075 20.9928L203.268 20.85L203.375 19.8464L203.382 19.8393ZM193.604 31.5928L193.704 31.5214L198.614 32.2678C199.246 32.3571 199.729 32.4857 200.064 32.6464C200.396 32.8107 200.625 33.0357 200.743 33.325C200.861 33.6143 200.918 34.0107 200.918 34.5178C200.918 35.1678 200.782 35.6786 200.511 36.05C200.239 36.4214 199.782 36.6821 199.143 36.8357C198.504 36.9893 197.621 37.0643 196.504 37.0643C195.386 37.0643 194.468 36.9928 193.807 36.8464C193.146 36.7 192.682 36.4393 192.411 36.0607C192.139 35.6821 192.004 35.1678 192.004 34.5178C192.004 34.0286 192.054 33.625 192.154 33.3C192.254 32.975 192.421 32.6786 192.654 32.4071C192.889 32.1357 193.204 31.8643 193.6 31.5964L193.604 31.5928ZM199.371 25.7821C198.811 26.225 197.811 26.4464 196.364 26.4464C194.918 26.4464 193.907 26.225 193.332 25.7821C192.754 25.3393 192.464 24.6321 192.464 23.6571C192.464 22.6821 192.754 21.975 193.332 21.5321C193.911 21.0893 194.921 20.8678 196.364 20.8678C197.807 20.8678 198.811 21.0893 199.371 21.5321C199.932 21.975 200.211 22.6821 200.211 23.6571C200.211 24.6321 199.932 25.3393 199.371 25.7821ZM151.786 31.4571C151.154 31.4571 150.664 31.2893 150.325 30.9571C149.982 30.625 149.811 30.15 149.811 29.5357V14.2893H148.05V29.7536C148.05 30.675 148.329 31.4464 148.889 32.0678C149.45 32.6893 150.314 33.0036 151.489 33.0036C152.664 33.0036 153.946 32.9928 155.171 32.975C156.4 32.9571 157.607 32.9107 158.8 32.8393L158.746 31.4571H151.786ZM169.889 19.9071C169.268 19.6464 168.504 19.5143 167.6 19.5143C166.861 19.5143 166.118 19.5464 165.379 19.6071C164.639 19.6714 163.925 19.7428 163.239 19.825C162.554 19.9071 161.904 20 161.289 20.1107L161.454 21.3821C162.446 21.275 163.468 21.1821 164.514 21.1107C165.561 21.0393 166.482 21.0036 167.279 21.0036C168.361 21.0036 169.096 21.2214 169.486 21.6536C169.875 22.0857 170.068 22.7178 170.068 23.55V24.9571H164.189C163.089 24.9571 162.236 25.2321 161.629 25.7821C161.025 26.3321 160.721 27.1143 160.721 28.125V29.6428C160.721 30.4 160.879 31.0464 161.196 31.5786C161.511 32.1107 161.95 32.5143 162.511 32.7821C163.071 33.0536 163.729 33.1893 164.489 33.1893C165.175 33.1893 165.839 33.0893 166.479 32.8928C167.118 32.6928 167.707 32.4428 168.239 32.1357C168.771 31.8286 169.243 31.5143 169.646 31.1893C169.871 31.0107 170.064 30.8393 170.229 30.6786L170.446 32.9786H171.8V23.5536C171.8 22.5607 171.636 21.7714 171.311 21.1821C170.986 20.5964 170.511 20.1714 169.889 19.9107V19.9071ZM170.064 29.4643C169.668 29.8178 169.236 30.1428 168.764 30.4286C168.079 30.8428 167.386 31.1607 166.693 31.375C165.996 31.5928 165.361 31.6928 164.782 31.6714C164.007 31.6714 163.429 31.4928 163.05 31.1286C162.671 30.7678 162.482 30.2178 162.482 29.475V28.3357C162.482 27.7036 162.639 27.2107 162.957 26.8607C163.271 26.5071 163.775 26.325 164.461 26.3071L170.068 26.2607V29.4607L170.064 29.4643Z" fill="white"/>
</g>
<defs>
<clipPath id="clip0_2_3">
<rect width="203.382" height="50" fill="white"/>
</clipPath>
</defs>
</svg>

<svg xmlns="http://www.w3.org/2000/svg" width="204" height="50" fill="none"><g clip-path="url(#a)"><path fill="#ED1C24" d="m31.225 38.825-3.025-3-1.75-1.75-16.425-16.4 3.3-3.3 1.8 1.75L31.75 32.4 30 34.1l3.025 3 4.85-4.675L18.125 13.1l-1.136-1.136-.15-.15-.489-.489.15-.1a6.202 6.202 0 0 1 1.95-1.35c.925-.45 1.95-.65 3-.65 1.9 0 3.7.75 4.975 2l9.9 9.9 3.025-3-9.9-9.95C27.4 6.125 24.5 5 21.45 5c-2.225 0-4.4.625-6.2 1.75-.65.45-1.25.925-1.775 1.425l-.171.171L5 .2 4.75 0 1.775 3.025l8.525 8.35-.025.025L4 17.675l19.35 19.35 1.775 1.75a6.504 6.504 0 0 1-2.15 1.4 6.715 6.715 0 0 1-2.7.575 7.024 7.024 0 0 1-5-2.1L3.05 26.275 0 29.25l12.25 12.375C14.35 43.8 17.225 45 20.275 45c2.1 0 4.125-.6 5.85-1.675.725-.375 1.375-.9 1.975-1.45l.05-.075 1.775 1.8 6.4 6.4 3.025-3.05L33 40.625l-1.775-1.8Z"/><path fill="#fff" d="M61.06 22.66 57.38 21.58c-.758-.2-1.304-.468-1.64-.811-.335-.343-.5-.922-.5-1.732 0-.525.057-.936.175-1.232.118-.297.304-.518.554-.665.253-.143.582-.235.99-.271.406-.036.896-.054 1.474-.054.94 0 1.918.015 2.94.04 1.02.028 1.917.05 2.692.067l.218-2.303a18.135 18.135 0 0 0-2.993-.514 45.559 45.559 0 0 0-2.91-.165c-1.158 0-2.143.068-2.965.204-.821.136-1.493.378-2.018.732-.525.354-.91.868-1.164 1.543-.253.678-.378 1.55-.378 2.614 0 1.425.285 2.564.853 3.41.568.85 1.557 1.49 2.964 1.922l3.818 1.165c.486.125.886.282 1.193.46.307.182.529.429.664.747.136.314.204.753.204 1.314 0 .65-.096 1.146-.286 1.49-.189.342-.518.567-.989.678-.471.107-1.121.164-1.95.164h-1.464a55.42 55.42 0 0 1-1.868-.04c-.722-.028-1.618-.056-2.682-.096l-.218 2.44c1.371.289 2.596.468 3.671.543 1.075.071 1.918.107 2.532.107 1.193 0 2.211-.082 3.061-.243.85-.164 1.536-.432 2.057-.814.525-.379.911-.911 1.165-1.597.253-.686.378-1.56.378-2.628 0-1.425-.282-2.568-.84-3.425-.56-.858-1.578-1.511-3.06-1.965l.004-.003Zm54.994-2.628c-.968-.45-2.261-.675-3.886-.675s-2.868.225-3.832.675c-.968.454-1.665 1.193-2.1 2.222-.432 1.028-.65 2.392-.65 4.089 0 1.696.218 3.057.65 4.075.432 1.021 1.132 1.76 2.1 2.221.964.461 2.243.69 3.832.69s2.921-.229 3.886-.69c.964-.46 1.66-1.2 2.085-2.221.425-1.022.636-2.379.636-4.075 0-1.697-.211-3.06-.636-4.09-.425-1.028-1.118-1.767-2.085-2.22Zm-.975 9.047c-.19.65-.518 1.1-.99 1.353-.471.254-1.11.379-1.921.379-.811 0-1.422-.125-1.882-.379-.461-.253-.79-.703-.99-1.353-.2-.65-.296-1.561-.296-2.736 0-1.175.1-2.086.296-2.736.2-.65.529-1.107.99-1.368.46-.26 1.085-.393 1.882-.393.796 0 1.453.133 1.921.393.468.261.8.718.99 1.368.189.65.285 1.56.285 2.736 0 1.175-.096 2.086-.285 2.736Zm-37.986-9.304c-.74-.279-1.643-.418-2.707-.418-.65 0-1.382.029-2.193.082-.814.054-1.618.125-2.41.218-.797.09-1.508.2-2.14.325l.296 2.247c1.047-.09 2.09-.165 3.129-.218 1.04-.054 1.9-.082 2.586-.082.921 0 1.542.157 1.867.475.325.317.49.825.49 1.528v.868h-5.118c-1.21 0-2.164.293-2.857.879-.697.585-1.043 1.403-1.043 2.45v1.407c0 .814.178 1.493.543 2.046.36.55.857.968 1.489 1.247.632.278 1.346.421 2.14.421.792 0 1.485-.118 2.124-.354a7.018 7.018 0 0 0 1.707-.892c.497-.361.918-.725 1.261-1.097.04-.043.072-.078.107-.121l.35 2.193h2.6V23.96c0-1.175-.185-2.093-.553-2.761a3.084 3.084 0 0 0-1.665-1.421l-.003-.004Zm-1.082 9.418a7.405 7.405 0 0 1-2.329 1.254c-.596.189-1.14.285-1.625.285-.614 0-1.064-.136-1.353-.407-.29-.271-.433-.679-.433-1.218v-.732c0-.468.118-.84.354-1.11.236-.272.621-.415 1.164-.433h4.225v2.364l-.003-.003Zm23.182-9.84c-.957 0-1.864.208-2.722.622-.76.368-1.542.907-2.353 1.614-.157-.532-.404-.971-.747-1.314-.614-.614-1.5-.921-2.653-.921a6.27 6.27 0 0 0-2.736.621c-.81.39-1.64.968-2.482 1.736l-.254-2.036h-2.628v13.296h3.278v-9.378c.483-.318.9-.579 1.247-.779a5.607 5.607 0 0 1 1.193-.543 3.79 3.79 0 0 1 1.082-.164c.578 0 1.01.14 1.3.422.29.278.432.771.432 1.475v8.964h3.168v-9.343c.475-.314.893-.579 1.246-.786a6.3 6.3 0 0 1 1.179-.553 3.436 3.436 0 0 1 1.096-.175c.632 0 1.075.15 1.329.446.253.297.39.782.407 1.45v8.964h3.25v-9.967c0-1.193-.311-2.1-.936-2.722-.625-.621-1.521-.936-2.696-.936v.008Zm42.736.418c-.74-.278-1.643-.417-2.708-.417-.65 0-1.382.028-2.192.082-.815.053-1.618.125-2.411.218-.797.089-1.507.2-2.139.325l.296 2.246a93.178 93.178 0 0 1 3.129-.218c1.039-.053 1.9-.082 2.585-.082.922 0 1.543.157 1.868.475.325.318.489.825.489 1.529v.867h-5.117c-1.211 0-2.165.293-2.858.879-.696.586-1.042 1.404-1.042 2.45v1.407c0 .814.178 1.493.542 2.047.361.55.858.967 1.49 1.246s1.346.421 2.139.421c.793 0 1.486-.117 2.125-.353a7.015 7.015 0 0 0 1.707-.893 8.53 8.53 0 0 0 1.261-1.096 3.88 3.88 0 0 0 .107-.122l.35 2.193h2.6v-9.018c0-1.175-.186-2.093-.554-2.76a3.084 3.084 0 0 0-1.664-1.422l-.003-.004Zm-1.083 9.418a7.419 7.419 0 0 1-2.328 1.253c-.597.19-1.139.287-1.625.287-.614 0-1.064-.136-1.354-.408-.289-.271-.432-.678-.432-1.217v-.733c0-.467.118-.839.354-1.11.235-.272.621-.415 1.164-.432h4.225v2.364l-.004-.004Zm-13.675-9.175c-.914.415-1.81.99-2.692 1.715l-.343-2.05h-2.547v13.296h3.279v-9.332c.925-.393 1.714-.7 2.357-.907a6.864 6.864 0 0 1 2.139-.354h.947l.325-3.032h-.65c-.904 0-1.843.221-2.818.664h.003Zm56.415-.5c-.993 0-2 .225-3.022.675-.989.44-2.003 1.061-3.035 1.854l-.122-2.207h-1.436V32.97h1.708v-9.689c1.103-.707 2.06-1.26 2.871-1.657a5.867 5.867 0 0 1 2.6-.621c.793 0 1.371.192 1.732.582.361.389.543 1.053.543 1.989v9.396h1.707v-9.857c0-2.4-1.182-3.6-3.546-3.6Zm19.796.325h-4.168c-.746-.214-1.696-.325-2.85-.325-1.353 0-2.432.15-3.235.447-.804.296-1.383.753-1.733 1.368-.353.614-.528 1.4-.528 2.357 0 .957.175 1.71.528 2.314.247.425.608.771 1.079 1.046-.246.183-.454.411-.618.686a2.993 2.993 0 0 0-.393 1.11c-.053.39-.014.772.122 1.15.135.38.371.704.703.976.079.064.165.121.257.178-.546.286-.985.583-1.314.893a2.595 2.595 0 0 0-.703 1.082c-.136.404-.204.908-.204 1.504 0 .74.104 1.357.311 1.854.207.496.553.896 1.043 1.207.489.307 1.125.528 1.91.664.786.136 1.757.204 2.911.204 1.5 0 2.693-.125 3.589-.379.893-.254 1.536-.668 1.922-1.246.389-.579.582-1.365.582-2.358 0-1.064-.225-1.885-.679-2.464-.45-.578-1.271-.957-2.464-1.136l-5.039-.839c-.668-.107-1.107-.343-1.315-.703-.207-.361-.25-.761-.121-1.204.079-.282.218-.543.4-.782.771.243 1.764.364 2.986.364 1.335 0 2.407-.15 3.21-.446.804-.297 1.383-.754 1.733-1.368.353-.614.528-1.39.528-2.329 0-.939-.175-1.739-.528-2.343a2.731 2.731 0 0 0-.229-.328l2.193-.143.107-1.004.007-.007Zm-9.778 11.754.1-.072 4.91.747c.632.09 1.115.218 1.45.378.332.165.561.39.679.679.118.29.175.686.175 1.193 0 .65-.136 1.16-.407 1.532-.272.371-.729.632-1.368.786-.639.153-1.522.228-2.639.228-1.118 0-2.036-.071-2.697-.218-.661-.146-1.125-.407-1.396-.785-.272-.379-.407-.893-.407-1.543 0-.49.05-.893.15-1.218.1-.325.267-.621.5-.893.235-.271.55-.543.946-.81l.004-.004Zm5.767-5.81c-.56.442-1.56.663-3.007.663-1.446 0-2.457-.221-3.032-.664-.578-.443-.868-1.15-.868-2.125 0-.975.29-1.682.868-2.125.579-.443 1.589-.664 3.032-.664s2.447.221 3.007.664c.561.443.84 1.15.84 2.125 0 .975-.279 1.682-.84 2.125Zm-47.585 5.674c-.632 0-1.122-.168-1.461-.5-.343-.332-.514-.807-.514-1.421V14.289h-1.761v15.465c0 .921.279 1.692.839 2.314.561.621 1.425.936 2.6.936s2.457-.011 3.682-.029a80.214 80.214 0 0 0 3.629-.136l-.054-1.382h-6.96Zm18.103-11.55c-.621-.26-1.385-.393-2.289-.393-.739 0-1.482.032-2.221.093a66.24 66.24 0 0 0-2.14.218c-.685.082-1.335.175-1.95.286l.165 1.271c.992-.107 2.014-.2 3.06-.271a41.203 41.203 0 0 1 2.765-.107c1.082 0 1.817.217 2.207.65.389.432.582 1.064.582 1.896v1.407h-5.879c-1.1 0-1.953.275-2.56.825-.604.55-.908 1.332-.908 2.343v1.518c0 .757.158 1.403.475 1.936.315.532.754.935 1.315 1.203.56.272 1.218.407 1.978.407.686 0 1.35-.1 1.99-.296a8.72 8.72 0 0 0 1.76-.757 11.031 11.031 0 0 0 1.407-.947c.225-.178.418-.35.583-.51l.217 2.3h1.354v-9.425c0-.993-.164-1.783-.489-2.372a2.838 2.838 0 0 0-1.422-1.271v-.004Zm.175 9.557a9.364 9.364 0 0 1-3.371 1.91c-.697.219-1.332.319-1.911.297-.775 0-1.353-.178-1.732-.542-.379-.361-.568-.911-.568-1.654v-1.14c0-.631.157-1.124.475-1.474.314-.354.818-.536 1.504-.554l5.607-.046v3.2l-.004.003Z"/></g><defs><clipPath id="a"><path fill="#fff" d="M0 0h203.382v50H0z"/></clipPath></defs></svg>
